printer-pos-play.svg

<svg fill="currentColor" viewBox="0 0 24 24"><path d="M20 13.09V12a2 2 0 0 0-2-2H6a2 2 0 0 0-2 2v7h9c0-3.31 2.69-6 6-6 .34 0 .67.04 1 .09M10 14H6v-2h4zm7-5H7V4h10zm5 10-5 3v-6z"/></svg>

<svg  viewBox="0 0 24 24" fill="currentColor"><path  d="M20 13.09V12C20 10.9 19.11 10 18 10H6C4.89 10 4 10.9 4 12V19H13C13 15.69 15.69 13 19 13C19.34 13 19.67 13.04 20 13.09M10 14H6V12H10V14M17 9H7V4H17V9M22 19L17 22V16L22 19Z"/></svg>
